X:1
T:James Gibb editions
T:S'el pensier Festa
T:#
%%score [ 1 2 3 4 ]
L:1/8
Q:1/4=120
M:4/4
K:F
V:1 treble nm="Soprano" snm="S"
V:2 treble nm="Alto" snm="A"
V:3 treble-8 nm="Tenor" snm="T"
V:4 bass nm="Bass" snm="B"
V:1
"^S'el pensier che mi strugge""^Sebastian Festa\n(1490?-1524)" B8 | A4 G2 (G2- | G2 FE F2) F2 | %3
w: S'el|pen- sier che|* * * * mi|
w: For-|se tel m'ar\-|* * * * de~~e|
 G4 G4 | F4 G4 | A2 B4 A2 |[M:4/4] B4 B4 | z2 A2 A2 B2 | A2 G2 F4 | G4 (E2 CD) | (EF) (G4 ^F2) | %11
w: strug- ge|Co- m'e|pun- gen- te~~e|sal- do|Co- sì ves-|tis- se d'un|co- lor * *|* * con\- *|
w: fug- ge|Ch'a- vria|par- te del|cal- do|et des- ter-|ia- si A-|mor là * *|dov' * hor *|
 G4 G4 :| z2 G2 A3 G | F2 F2 G2 G2 | c8 | B2 A2 G2 G2 | F2 F2 z2 B2 | A2 B2 B2 A2 | B2 B2 z2 B2 | %19
w: for- me;|Men so- li-|ta- rie l'or- me|Fo-|ran de' miei pié|las- si Per|cam- pa- gne~e per|col- li, Men|
w: dor- me.||||||||
 A2 B2 B2 A2 | B2 B2 z2 A2 | A3 G A2 A2 | (BAGF) E2 F2 | F2 E2 F2 F2 | z2 A2 B3 A | G2 F2 G2 G2 | %26
w: gli~~oc- chi~ad ogn' hor|mol- li, Ar-|den- do lei Che|co\- * * * me un|ghiac- cio stas- si|E non la-|scia~~in me dram- ma|
w: |||||||
 z2 A2 B3 A | G2 F2 G2 G2 | z8 | z2 F2 F2 F2 | F2 G2 A2 A2 | (D4 EF) G2 | F2 G4 ^F2 | G2 G2 z2 F2 | %34
w: Che non sia|fo- co~~e fiam- ma,||e non la-|scia~~in me dram- ma|che * * non|sia fo- co~~e|fiam- ma, e|
w: ||||||||
 F2 F2 F2 G2 | A2 A2 D4 | (EF G2) F2 G2- | G2 ^F2 G2 G2 | d8 | c2 c2 B2 c2 | A4 G4- | G8 | G8 | %43
w: non la- scia~~in me|dram- ma che|non * * sia fo\-|* co~~e fiam- ma,|che|non sia fo- co~~e|fiam- ma.|||
w: |||||||||
 !fermata!G8 |] %44
w: |
w: |
V:2
 F8 | F4 D2 E2- | E2 C2 D4 | (B,A,B,C) D4 | z2 B,2 B,4 | (FEDE) F2 F2 |[M:4/4] D4 D4 | %7
w: S'el|pen- sier che|* mi strug-|ge * * * *|Co- m'e|pun\- * * * gen- te~~e|sal- do|
w: For-|se tel m'ar\-|* de e|fug\- * * * ge|Ch'a- vria|par\- * * * te del|cal- do|
 z2 F2 F2 F2 | F2 D2 D4- | D4 (CDEF) | G2 _E2 D4 | B,4 B,4 :| z2 D2 F3 E | D2 D2 D2 D2 | F8 | %15
w: Co- sì ves-|tis- se d'un|* co\- * * *|* lor con-|for- me;|Men so- li-|ta- rie l'or- me|Fo-|
w: et des- ter-|ia- si A\-|* mor * * *|là dov' hor|dor- me.||||
 D2 D2 G,2 G,2 | A,2 A,2 z2 F2 | F2 E2 F2 F2 | D2 D2 z2 F2 | F2 E2 F2 F2 | D2 D2 z2 F2 | %21
w: ran de' miei pié|las- si Per|cam- pa- gne~e per|col- li, Men|gli~~oc- chi~ad ogn' hor|mol- li, Ar-|
w: ||||||
 F3 E F2 F2 | F2 D2 C2 B,2 | G,4 A,4 | z8 | z2 A2 B3 A | G2 F2 G2 G2 | z2 A2 B3 A | G2 F2 G2 G2 | %29
w: den- do lei Che|co- me~un ghiac- cio|stas- si||E non la-|scia~~in me dram- ma|Che non sia|fo- co~~e fiam- ma,|
w: ||||||||
 z2 A2 A2 A2 | D3 E F2 F2 | z2 G2 G2 E2 | D2 C2 D4 | B,4 z2 D2 | D2 D2 D3 E | F2 F2 z2 G2 | %36
w: e non la-|scia~~in me dram- ma|che non sia|fo- co~~e fiam-|ma, e|non la- scia~~in me|dram- ma che|
w: |||||||
 G2 E2 D2 C2 | D4 B,4 | F8 | F2 F2 D2 E2 | D4 B,4 | B,4 C2 D2 | C2 C2 C4- | C4 !fermata!B,4 |] %44
w: non sia fo- co~~e|fiam- ma,|che|non sia fo- co~~e|fiam- ma,|che non sia|fo- co~~e fiam\-|* ma.|
w: ||||||||
V:3
 d8 | c4 B2 (c2- | c BAG A2) A2 | G4 G4 | d4 (_e3 d) | (c2 B2) c2 c2 |[M:4/4][K:treble-8] B4 B4 | %7
w: S'el|pen- sier che|* * * * * mi|strug- ge|Co- m'e *|pun\- * gen- te~~e|sal- do|
w: For-|se tel m'ar\-|* * * * de e|fug- ge|Ch'a- vria *|par\- * te del|cal- do|
 z2 c2 c2 d2 | c2 B2 (A4 | B4) c4 | (c2 B2) A4 | G4 G4 :| z2 B2 c3 B | A2 A2 G2 G2 | A8 | %15
w: Co- sì ves-|tis- se d'un|* co-|lor * con-|for- me;|Men so- li-|ta- rie l'or- me|Fo-|
w: et des- ter-|ia- si A-|mor là|dov' * hor|dor- me.||||
 G2 A2 B2 c2 | d2 d2 z2 d2 | c2 B2 c2 c2 | B2 B2 z2 d2 | c2 B2 c2 c2 | B2 B2 z2 c2 | c3 B c2 c2 | %22
w: ran de' miei pié|las- si Per|cam- pa- gne~e per|col- li, Men|gli~~oc- chi~ad ogn' hor|mol- li, Ar-|den- do lei Che|
w: |||||||
 dc (BA) G2 F2 | G4 F4 | z2 c2 d3 c | B2 A2 G2 G2 | z2 c2 d3 c | B2 A2 G2 G2 | z8 | z2 d2 d2 d2 | %30
w: co- me un * ghiac- cio|stas- si|E non la-|scia~~in me dram- ma|Che non sia|fo- co~~e fiam- ma,||e non la-|
w: ||||||||
 A2 B2 c2 c2 | B4 (c3 B | A2) G2 A2 A2 | G2 G2 z2 A2 | A2 A2 A2 B2 | c2 c2 B4 | (c2 B2 A2) G2 | %37
w: scia~~in me dram- ma|che non *|* sia fo- co~~e|fiam- ma e|non la- scia~~in me|dram- ma che|non * * sia|
w: |||||||
 A2 A2 G2 G2 | b8 | a2 a2 g2 e2 | (^f g2 f) g4- | g2 f2 _e2 d2 | _e2 e2 e4- | e4 !fermata!d4 |] %44
w: fo- co~~e fiam- ma,|che|non sia fo- co~~e|fiam\- * * ma,|* che non sia|fo- co~~e fiam\-|* ma.|
w: |||||||
V:4
 B,8 | F,4 G,2 C,2 | E,4- D,4 | D4 z2 (B,2- | B,A,G,F,) _E,4 | F,2 G,2 F,4 |[M:4/4] B,,4 B,,4 | %7
w: S'el|pen- sier che|mi strug-|ge Co\-|* * * * m'e|pun- gen- te~~e|sal- do|
w: For-|se tel m'ar-|de~~e fug-|ge Ch'a\-|* * * * vria|par- te del|cal- do|
 z2 F,2 F,2 B,2 | F,2 G,2 D,4 | G,4 C,4- | C,4 D,4 | D4 D4 :| z2 G,2 F,3 G, | D,2 D,2 G,2 G,2 | %14
w: Co- sì ves-|tis- se d'un|co- lor|* con-|for- me;|Men so- li-|a- rie l'or- me|
w: et des- ter-|ia- si A-|mor là|dov' hor|dor- me.|||
 F,8 | G,2 F,2 _E,2 E,2 | D,2 D,2 z2 B,,2 | F,2 G,2 F,2 F,2 | B,,2 B,,2 z2 B,,2 | F,2 G,2 F,2 F,2 | %20
w: Fo-|ran de' miei pié|las- si Per|cam- pa- gne~e per|col- li, Men|gli~~oc- chi~ad ogn' hor|
w: ||||||
 B,,2 B,,2 z2 F,2 | F,3 G, F,2 F,2 | B,,2 B,,2 C,2 D,2 | C,4 C4 | z8 | z2 C2 D3 C | %26
w: mol- li, Ar-|den- do lei Che|co- me~un ghiac- cio|stas- si||E non la-|
w: ||||||
 B,2 A,2 G,2 G,2 | z2 C2 D3 C | B,2 A,2 G,2 G,2 | z2 D,2 D,2 D,2 | D,2 G,2 F,2 F,2 | G,4 C,4 | %32
w: scia~~in me dram- ma|Che non sia|fo- co~~e fiam- ma,|e non la-|scia~~in me dram- ma|che non|
w: ||||||
 D,2 E,2 D,4 | G,2 G,2 z2 D,2 | D,2 D,4 G,2 | F,2 F,2 G,4 | C,4 D,2 E,2 | D,2 D,2 D2 D2 | B,8 | %39
w: sia fo- co~~e|fiam- ma, e|non la- scia~~in|me dram- ma|che non sia|fo- co~~e fiam- ma,|che|
w: |||||||
 F,2 F,2 G,2 C,2 | D,4 _E,4- | E,2 D,2 C,2 B,,2 | C,2 C,2 C,4- | C,4 !fermata!G,4 |] %44
w: non sia fo- co~~e|fiam- ma,|* che non sia|fo- co~~e fiam\-|* ma.|
w: |||||

